X:2820
T:Vals
T:ur Johan Erik Carlssons notbok (nr 131)
B:Johan Erik Carlssons notbok, nr 131
B:http://www.smus.se/earkiv/fmk/browselarge.php?lang=sw&katalogid=MMD+67&bildnr=00048
O:Snavlunda, Närke / Bona, Östergötland
R:Vals
Z:Nils Liberg
M:3/8
L:1/16
K:C
G2 | c2edcB | A^GBGA2 | E2edcB | cdefg2 |
     c2edcB | A^GBGA2 | F2fdcB | c4 ::
ef | gagece | a4 gf | egfdBG  | cBcdef |
     gagece | a4 gf | eg fdBG | c4 :|
(:musicend:)
(:music:)
